X:1
T: Miss Johnson
P:Roche version
R:Reel
Q: 232
K:G
M:4/4
L:1/8
c|:Bc de dB ((3cBA) |dg ((3ggg) bg ((3ggg) |Bc de dc Bc|A2 ag fe dc|
Bc de dD DA|dB gB aB gB|ba gf gf ed|ea af ge dc:|
|:Bc BA G2 BG|DG BG DG BG|Bc BA G2 AG|FG AB ce dc|
Bc BA G2 BG|DG BG DG Bc|de dc BG AG|FG AB ce dc:|
